X: 19846
T: Jersey Lightning
R: reel
M: 4/4
K: Dminor
C2|:DEFG Ad2A|BAGB Ad2A|BAGB AGFA|GFEG F/E/D C2|
DEFG Ad2A|BAGB Ad2A|BAGB AGFA|1 GFEF D2C2:|2 GFEF D2AB||
K:Fmaj
|:c=Bdc AF2f|fegf d2c2|CDEF GABc|AFGE FGAB|
c=Bdc AF2f|fegf d2c2|CDEF GABc|1 AFGE F2AB:|2 AFGE F2E2||

